X:246
T:West Countryman & King
%%VWML:SBG-1-2-771-0
F:http://www.vwml.org/record/SBG/1/2/771
Z:Original Sibelius transcriptions by M. & S. Graebe
M:6/8
I:linebreak $
K:D
V:1 treble nm="P1"
V:1
 A, | D2 D D2 F | A2 F D2 D | E2 E E2 ^D | E2 ^D E2 E | F2 F F2 ^E | F2 ^E F2 ^E |$ F2 E F2 E | %8
 F2 E F2 E | F2 E F2 E | F2 E F2 E | FG A D2 C | B,2 B A2 C | D2 .D2 x2 | %14

